packages/icons/src/shadow-none.svg

<svg width="15" height="15" viewBox="0 0 15 15" fill="none" xmlns="http://www.w3.org/2000/svg">
  <path
    opacity=".05"
    fill-rule="evenodd"
    clip-rule="evenodd"
    d="M6.78296 13.376C8.73904 9.95284 8.73904 5.04719 6.78296 1.62405L7.21708 1.37598C9.261 4.95283 9.261 10.0472 7.21708 13.624L6.78296 13.376Z"
    fill="currentColor"
  />
  <path
    opacity=".1"
    fill-rule="evenodd"
    clip-rule="evenodd"
    d="M7.28204 13.4775C9.23929 9.99523 9.23929 5.00475 7.28204 1.52248L7.71791 1.2775C9.76067 4.9119 9.76067 10.0881 7.71791 13.7225L7.28204 13.4775Z"
    fill="currentColor"
  />
  <path
    opacity=".15"
    fill-rule="evenodd"
    clip-rule="evenodd"
    d="M7.82098 13.5064C9.72502 9.99523 9.72636 5.01411 7.82492 1.50084L8.26465 1.26285C10.2465 4.92466 10.2451 10.085 8.26052 13.7448L7.82098 13.5064Z"
    fill="currentColor"
  />
  <path
    opacity=".2"
    fill-rule="evenodd"
    clip-rule="evenodd"
    d="M8.41284 13.429C10.1952 9.92842 10.1957 5.07537 8.41435 1.57402L8.85999 1.34729C10.7139 4.99113 10.7133 10.0128 8.85841 13.6559L8.41284 13.429Z"
    fill="currentColor"
  />
  <path
    opacity=".25"
    fill-rule="evenodd"
    clip-rule="evenodd"
    d="M9.02441 13.2956C10.6567 9.8379 10.6586 5.17715 9.03005 1.71656L9.48245 1.50366C11.1745 5.09919 11.1726 9.91629 9.47657 13.5091L9.02441 13.2956Z"
    fill="currentColor"
  />
  <path
    opacity=".3"
    fill-rule="evenodd"
    clip-rule="evenodd"
    d="M9.66809 13.0655C11.1097 9.69572 11.1107 5.3121 9.67088 1.94095L10.1307 1.74457C11.6241 5.24121 11.6231 9.76683 10.1278 13.2622L9.66809 13.0655Z"
    fill="currentColor"
  />
  <path
    opacity=".35"
    fill-rule="evenodd"
    clip-rule="evenodd"
    d="M10.331 12.7456C11.5551 9.52073 11.5564 5.49103 10.3347 2.26444L10.8024 2.0874C12.0672 5.42815 12.0659 9.58394 10.7985 12.9231L10.331 12.7456Z"
    fill="currentColor"
  />
  <path
    opacity=".4"
    fill-rule="evenodd"
    clip-rule="evenodd"
    d="M11.0155 12.2986C11.9938 9.29744 11.9948 5.71296 11.0184 2.71067L11.4939 2.55603C12.503 5.6589 12.502 9.35178 11.4909 12.4535L11.0155 12.2986Z"
    fill="currentColor"
  />
  <path
    opacity=".45"
    fill-rule="evenodd"
    clip-rule="evenodd"
    d="M11.7214 11.668C12.4254 9.01303 12.4262 5.99691 11.7237 3.34116L12.2071 3.21329C12.9318 5.95292 12.931 9.05728 12.2047 11.7961L11.7214 11.668Z"
    fill="currentColor"
  />
  <path
    opacity=".5"
    fill-rule="evenodd"
    clip-rule="evenodd"
    d="M12.4432 10.752C12.8524 8.63762 12.8523 6.36089 12.4429 4.2466L12.9338 4.15155C13.3553 6.32861 13.3554 8.66985 12.9341 10.847L12.4432 10.752Z"
    fill="currentColor"
  />
  <path
    fill-rule="evenodd"
    clip-rule="evenodd"
    d="M7.49991 0.877045C3.84222 0.877045 0.877075 3.84219 0.877075 7.49988C0.877075 9.1488 1.47969 10.657 2.4767 11.8162L1.64647 12.6464C1.45121 12.8417 1.45121 13.1583 1.64647 13.3535C1.84173 13.5488 2.15832 13.5488 2.35358 13.3535L3.18383 12.5233C4.34302 13.5202 5.8511 14.1227 7.49991 14.1227C11.1576 14.1227 14.1227 11.1575 14.1227 7.49988C14.1227 5.85107 13.5202 4.34298 12.5233 3.1838L13.3536 2.35355C13.5488 2.15829 13.5488 1.8417 13.3536 1.64644C13.1583 1.45118 12.8417 1.45118 12.6465 1.64644L11.8162 2.47667C10.657 1.47966 9.14883 0.877045 7.49991 0.877045ZM11.1423 3.15065C10.1568 2.32449 8.88644 1.82704 7.49991 1.82704C4.36689 1.82704 1.82708 4.36686 1.82708 7.49988C1.82708 8.88641 2.32452 10.1568 3.15069 11.1422L11.1423 3.15065ZM3.85781 11.8493C4.84322 12.6753 6.11348 13.1727 7.49991 13.1727C10.6329 13.1727 13.1727 10.6329 13.1727 7.49988C13.1727 6.11345 12.6754 4.84319 11.8493 3.85778L3.85781 11.8493Z"
    fill="currentColor"
  />
</svg>

<svg xmlns="http://www.w3.org/2000/svg" width="15" height="15" fill="none"><path fill="currentColor" fill-rule="evenodd" d="M6.783 13.376c1.956-3.423 1.956-8.329 0-11.752l.434-.248c2.044 3.577 2.044 8.671 0 12.248z" clip-rule="evenodd" opacity=".05"/><path fill="currentColor" fill-rule="evenodd" d="M7.282 13.478c1.957-3.483 1.957-8.473 0-11.956l.436-.244c2.043 3.634 2.043 8.81 0 12.445z" clip-rule="evenodd" opacity=".1"/><path fill="currentColor" fill-rule="evenodd" d="M7.821 13.506c1.904-3.51 1.905-8.492.004-12.005l.44-.238c1.981 3.662 1.98 8.822-.004 12.482z" clip-rule="evenodd" opacity=".15"/><path fill="currentColor" fill-rule="evenodd" d="M8.413 13.429c1.782-3.5 1.783-8.354.001-11.855l.446-.227c1.854 3.644 1.853 8.666-.002 12.309z" clip-rule="evenodd" opacity=".2"/><path fill="currentColor" fill-rule="evenodd" d="M9.024 13.296c1.633-3.458 1.635-8.119.006-11.58l.452-.212c1.693 3.595 1.69 8.412-.005 12.005z" clip-rule="evenodd" opacity=".25"/><path fill="currentColor" fill-rule="evenodd" d="M9.668 13.066c1.442-3.37 1.443-7.754.003-11.125l.46-.196c1.493 3.496 1.492 8.022-.003 11.517z" clip-rule="evenodd" opacity=".3"/><path fill="currentColor" fill-rule="evenodd" d="M10.331 12.746c1.224-3.225 1.225-7.255.004-10.482l.467-.177c1.265 3.341 1.264 7.497-.003 10.836z" clip-rule="evenodd" opacity=".35"/><path fill="currentColor" fill-rule="evenodd" d="M11.016 12.299c.978-3.002.979-6.586.002-9.588l.476-.155c1.009 3.103 1.008 6.796-.003 9.898z" clip-rule="evenodd" opacity=".4"/><path fill="currentColor" fill-rule="evenodd" d="M11.721 11.668c.704-2.655.705-5.671.003-8.327l.483-.128c.725 2.74.724 5.844-.002 8.583z" clip-rule="evenodd" opacity=".45"/><path fill="currentColor" fill-rule="evenodd" d="M12.443 10.752c.41-2.114.41-4.391 0-6.505l.49-.095a17.9 17.9 0 0 1 .001 6.695z" clip-rule="evenodd" opacity=".5"/><path fill="currentColor" fill-rule="evenodd" d="M7.5.877a6.623 6.623 0 0 0-5.023 10.94l-.83.83a.5.5 0 1 0 .707.707l.83-.83a6.623 6.623 0 0 0 9.34-9.34l.83-.83a.5.5 0 0 0-.707-.708l-.83.83A6.6 6.6 0 0 0 7.5.878m3.642 2.274a5.673 5.673 0 0 0-7.992 7.992zM3.858 11.85a5.673 5.673 0 0 0 7.991-7.992z" clip-rule="evenodd"/></svg>
